actions/22/edit-guides.svg

<!DOCTYPE svg>
<svg viewBox="0 0 22 22" version="1.1" xmlns="http://www.w3.org/2000/svg">
    <defs>
        <style type="text/css" id="current-color-scheme">
            .ColorScheme-Text {
                color:#eff0f1;
            }
        </style>
    </defs>
    <path class="ColorScheme-Text" style="fill:currentColor; fill-opacity:1; stroke:none" d="M 4 3 L 4 19 L 18 19 L 18 7 L 14 3 L 4.00019 3.00001 Z M 5.00019 4.00001 L 6.00019 4.00001 L 6.00019 15 L 5.00019 15 L 5.00019 4.00001 Z M 7.00019 4.00001 L 13 4 L 13 8 L 17 8 L 16.992 15 L 7 15 L 7 4.00001 L 7.00019 4.00001 Z M 10.0002 5.00001 L 8.00019 7.00001 L 10.0002 9.00001 L 10.0002 5.00001 Z M 5.00019 16 L 6.00019 16 L 6.00019 18 L 5.00019 18 L 5.00019 16 Z M 7.00019 16 L 16.9922 16 L 16.9922 18 L 7.00019 18 L 7.00019 16 Z"/>
</svg>

<!DOCTYPE svg>
<svg viewBox="0 0 22 22" version="1.1" xmlns="http://www.w3.org/2000/svg">
    <defs>
<style type="text/css" id="current-color-scheme">.ColorScheme-Text {color:#fcfcfc;}</style>
    </defs>
    <path class="ColorScheme-Text" style="fill:currentColor; fill-opacity:1; stroke:none" d="m 4,5 c 0,2 0,10 0,12 0,2 2,2 2,2 l 10,0 c 0,0 2,0 2,-2 0,-2 0,-10 0,-10 L 14,3 H 6 C 6,3 4,3 4,5 Z M 6,4 V 15 H 5 C 5,15 5,6.2695312 5,5.1347656 5,4 6,4 6,4 Z m 1,0 h 6 v 4 h 4 l -0.0078,7 H 7 Z m 3,1 -2,2 2,2 z M 5,16 h 1 v 2 c 0,0 -1,0 -1,-1 0,-1 0,-1 0,-1 z m 2,0 h 9.992188 c 0,0 0,0 0,1 C 16.992188,18 16,18 16,18 H 7 Z"/>
</svg>
